findly-builder/apps/searchassist/src/assets/icons/view-query.svg

<svg width="12" height="12" viewBox="0 0 12 12" fill="none" xmlns="http://www.w3.org/2000/svg">
<path d="M0 0V4L1.52865 2.47135L3.92839 4.87109L4.87109 3.92839L2.47135 1.52865L4 0H0ZM8 0L9.52865 1.52865L7.12891 3.92839L8.07162 4.87109L10.4714 2.47135L12 4V0H8ZM3.92839 7.12891L1.52865 9.52865L0 8V12H4L2.47135 10.4714L4.87109 8.07162L3.92839 7.12891ZM8.07162 7.12891L7.12891 8.07162L9.52865 10.4714L8 12H12V8L10.4714 9.52865L8.07162 7.12891Z" fill="#5F6368"/>
</svg>

<svg width="12" height="12" fill="none" xmlns="http://www.w3.org/2000/svg"><path d="M0 0v4l1.529-1.529 2.4 2.4.942-.943-2.4-2.4L4 0H0Zm8 0 1.529 1.529-2.4 2.4.943.942 2.4-2.4L12 4V0H8ZM3.928 7.129l-2.4 2.4L0 8v4h4l-1.529-1.529 2.4-2.4-.943-.942Zm4.144 0-.943.943 2.4 2.4L8 12h4V8l-1.529 1.529-2.4-2.4Z" fill="#5F6368"/></svg>
